assets/src/img/social/icon_social-v.svg

<svg class="icon_vimeo" xmlns="http://www.w3.org/2000/svg" viewBox="0 0 400 400"><path d="M175 1.185C11.863 21.386-58.381 221.347 56.207 339.352c106.117 109.282 291.416 64.53 335.54-81.037C433.722 119.835 318.706-16.61 175 1.185m119.141 95.972c52.496 14.044 17.817 113.888-64.063 184.443-29.259 25.211-39.807 28.083-56.725 15.444-13.587-10.15-15.41-14.381-39.302-91.212-17.909-57.592-18.084-57.797-38.589-45.129-3.141 1.94-5.797 3.402-5.903 3.248-.106-.153-2.019-2.614-4.251-5.468-5.109-6.533-5.331-5.496 3.169-14.828 18.97-20.828 42.841-38.979 57.915-44.039 22.64-7.601 32.65 5.38 40.661 52.728 7.616 45.017 17.775 75.872 24.942 75.753 9.075-.15 35.913-39.76 38.888-57.394 3.174-18.813-10.802-30.093-27.751-22.399-4.788 2.174-4.938 1.993-3.289-3.939 8.625-31.021 46.01-54.775 74.298-47.208" fill-rule="evenodd"/></svg>

<svg id="svg" xmlns="http://www.w3.org/2000/svg" xmlns:xlink="http://www.w3.org/1999/xlink" width="400" height="400" viewBox="0, 0, 400,400"><g id="svgg"><path id="path0" d="M175.000 1.185 C 11.863 21.386,-58.381 221.347,56.207 339.352 C 162.324 448.634,347.623 403.882,391.747 258.315 C 433.722 119.835,318.706 -16.610,175.000 1.185 M294.141 97.157 C 346.637 111.201,311.958 211.045,230.078 281.600 C 200.819 306.811,190.271 309.683,173.353 297.044 C 159.766 286.894,157.943 282.663,134.051 205.832 C 116.142 148.240,115.967 148.035,95.462 160.703 C 92.321 162.643,89.665 164.105,89.559 163.951 C 89.453 163.798,87.540 161.337,85.308 158.483 C 80.199 151.950,79.977 152.987,88.477 143.655 C 107.447 122.827,131.318 104.676,146.392 99.616 C 169.032 92.015,179.042 104.996,187.053 152.344 C 194.669 197.361,204.828 228.216,211.995 228.097 C 221.070 227.947,247.908 188.337,250.883 170.703 C 254.057 151.890,240.081 140.610,223.132 148.304 C 218.344 150.478,218.194 150.297,219.843 144.365 C 228.468 113.344,265.853 89.590,294.141 97.157 " stroke="none" fill="#000000" fill-rule="evenodd"></path></g></svg>
